public/images/hashed/03bd96568df8ef60a88369fe8a5da70c.svg

<?xml version="1.0" encoding="UTF-8"?>
<svg width="80px" height="80px" viewBox="0 0 80 80" version="1.1" xmlns="http://www.w3.org/2000/svg" xmlns:xlink="http://www.w3.org/1999/xlink">
    <!-- Generator: Sketch 64 (93537) - https://sketch.com -->
    <title>Icon-Architecture/64/Arch_Amazon-Inspector_64</title>
    <desc>Created with Sketch.</desc>
    <defs>
        <linearGradient x1="0%" y1="100%" x2="100%" y2="0%" id="linearGradient-1">
            <stop stop-color="#BD0816" offset="0%"></stop>
            <stop stop-color="#FF5252" offset="100%"></stop>
        </linearGradient>
    </defs>
    <g id="Icon-Architecture/64/Arch_Amazon-Inspector_64" stroke="none" stroke-width="1" fill="none" fill-rule="evenodd">
        <g id="Icon-Architecture-BG/64/Security-Identity-Compliance" fill="url(#linearGradient-1)">
            <rect id="Rectangle" x="0" y="0" width="80" height="80"></rect>
        </g>
        <path d="M35.5082222,30.8559178 C34.2219609,30.8559178 33.1763743,29.8091029 33.1763743,28.5235582 C33.1763743,27.2370147 34.2219609,26.1901998 35.5082222,26.1901998 C36.7944835,26.1901998 37.8410687,27.2370147 37.8410687,28.5235582 C37.8410687,29.8091029 36.7944835,30.8559178 35.5082222,30.8559178 M33.8234996,38.5512062 C36.0385054,38.5512062 37.8410687,40.3541651 37.8410687,42.569657 C37.8410687,44.7851489 36.0385054,46.5881078 33.8234996,46.5881078 C31.6084938,46.5881078 29.8059304,44.7851489 29.8059304,42.569657 C29.8059304,40.3541651 31.6084938,38.5512062 33.8234996,38.5512062 M33.8234996,49.9592914 C26.0330305,49.9592914 19.6945986,43.6194685 19.6945986,35.8272899 C19.6945986,28.0351112 26.0330305,21.6952884 33.8234996,21.6952884 C41.6139686,21.6952884 47.9524005,28.0351112 47.9524005,35.8272899 C47.9524005,37.835017 47.5249783,39.7428571 46.7660042,41.4748963 L39.5197995,40.4210893 C38.9765338,38.9847154 37.9079783,37.8080475 36.5468183,37.124821 L36.5468183,32.7957218 C38.4772088,32.3262533 39.9182608,30.595213 39.9182608,28.5235582 C39.9182608,26.0913117 37.9399351,24.1135507 35.5082222,24.1135507 C33.0765093,24.1135507 31.0991822,26.0913117 31.0991822,28.5235582 C31.0991822,30.595213 32.5402343,32.3262533 34.4696262,32.7957218 L34.4696262,36.5095175 C34.2569137,36.4875424 34.0412053,36.4745571 33.8234996,36.4745571 C32.2775893,36.4745571 30.8684941,37.0578967 29.7919493,38.0098191 L27.2803444,35.4726913 C27.9484413,34.5117791 28.3429081,33.3460988 28.3429081,32.0895213 C28.3429081,30.0588202 27.3222877,28.1909348 25.6125989,27.0931775 L24.5340568,28.7752733 C25.6675246,29.5034489 26.345608,30.7420467 26.345608,32.0895213 C26.345608,34.2640596 24.5769987,36.0330569 22.4029376,36.0330569 L22.4029376,38.0307953 C23.6732205,38.0307953 24.8486316,37.6262533 25.8163235,36.9440256 L28.4827191,39.6379759 C28.0023684,40.5089898 27.7287383,41.507859 27.7287383,42.569657 C27.7287383,45.9308519 30.4630422,48.6647569 33.8234996,48.6647569 C37.180961,48.6647569 39.9132676,45.9348473 39.9182608,42.5776479 L45.719419,43.4216924 C43.2068155,47.3462495 38.8177485,49.9592914 33.8234996,49.9592914 M33.8234996,19.6186393 C24.8875789,19.6186393 17.6174065,26.8894082 17.6174065,35.8272899 C17.6174065,44.7651715 24.8875789,52.0369393 33.8234996,52.0369393 C42.7594202,52.0369393 50.0295926,44.7651715 50.0295926,35.8272899 C50.0295926,26.8894082 42.7594202,19.6186393 33.8234996,19.6186393 M65.0952273,63.8545609 C63.8968472,65.1800603 61.8356335,65.2899359 60.5054316,64.0942895 L47.7686489,52.6022993 C49.4363945,51.2128722 50.8914276,49.5787222 52.0848144,47.7577836 L64.8555513,59.263758 C66.1827572,60.4643988 66.2896127,62.5240671 65.0952273,63.8545609 M14.0771921,35.8272899 C14.0771921,24.9366189 22.9352181,16.0766491 33.8234996,16.0766491 C44.7117811,16.0766491 53.569807,24.9366189 53.569807,35.8272899 C53.569807,46.7179608 44.7117811,55.5779306 33.8234996,55.5779306 C22.9352181,55.5779306 14.0771921,46.7179608 14.0771921,35.8272899 M66.2456721,57.721504 L53.1583632,45.9318507 C54.7452182,42.9082737 55.6469991,39.4721636 55.6469991,35.8272899 C55.6469991,23.7909159 45.856234,14 33.8234996,14 C21.7907651,14 12,23.7909159 12,35.8272899 C12,47.8636638 21.7907651,57.6555786 33.8234996,57.6555786 C38.3633627,57.6555786 42.5846565,56.2591594 46.0809303,53.8758575 L59.1173081,65.6375424 C60.1319365,66.5505089 61.406214,67 62.6764969,67 C64.1345259,67 65.5865631,66.4076706 66.6381416,65.2439879 C68.597493,63.0624576 68.4217306,59.6882774 66.2456721,57.721504" id="Amazon-Inspector_Icon_64_Squid" fill="#FFFFFF"></path>
    </g>
</svg>

<svg xmlns="http://www.w3.org/2000/svg" width="80" height="80"><defs><linearGradient id="a" x1="0%" x2="100%" y1="100%" y2="0%"><stop offset="0%" stop-color="#BD0816"/><stop offset="100%" stop-color="#FF5252"/></linearGradient></defs><g fill="none" fill-rule="evenodd"><path fill="url(#a)" d="M0 0h80v80H0z"/><path fill="#FFF" d="M35.508 30.856a2.335 2.335 0 0 1-2.332-2.332 2.335 2.335 0 0 1 2.332-2.334 2.336 2.336 0 0 1 2.333 2.334 2.336 2.336 0 0 1-2.333 2.332m-1.685 7.695a4.023 4.023 0 0 1 4.018 4.019 4.023 4.023 0 0 1-4.018 4.018 4.023 4.023 0 0 1-4.017-4.018 4.023 4.023 0 0 1 4.017-4.019m0 11.408c-7.79 0-14.128-6.34-14.128-14.132s6.338-14.132 14.128-14.132c7.791 0 14.13 6.34 14.13 14.132 0 2.008-.428 3.916-1.187 5.648L39.52 40.42a6.116 6.116 0 0 0-2.973-3.296v-4.33c1.93-.469 3.371-2.2 3.371-4.271a4.415 4.415 0 0 0-4.41-4.41 4.414 4.414 0 0 0-4.409 4.41c0 2.071 1.441 3.802 3.37 4.272v3.714a6.067 6.067 0 0 0-4.678 1.5l-2.51-2.537a5.908 5.908 0 0 0 1.062-3.383c0-2.031-1.02-3.9-2.73-4.997l-1.079 1.682a3.924 3.924 0 0 1 1.812 3.315 3.947 3.947 0 0 1-3.943 3.943v1.998c1.27 0 2.446-.405 3.413-1.087l2.667 2.694a6.052 6.052 0 0 0-.754 2.932 6.102 6.102 0 0 0 6.094 6.095c3.358 0 6.09-2.73 6.095-6.087l5.801.844c-2.512 3.924-6.901 6.537-11.896 6.537m0-30.34c-8.935 0-16.206 7.27-16.206 16.208 0 8.938 7.27 16.21 16.206 16.21s16.207-7.272 16.207-16.21S42.76 19.62 33.823 19.62m31.272 44.236a3.262 3.262 0 0 1-4.59.24L47.77 52.601a22.005 22.005 0 0 0 4.316-4.844l12.77 11.506a3.263 3.263 0 0 1 .24 4.59M14.077 35.828c0-10.89 8.858-19.75 19.746-19.75 10.889 0 19.747 8.86 19.747 19.75 0 10.891-8.858 19.75-19.747 19.75-10.888 0-19.746-8.859-19.746-19.75m52.169 21.895-13.088-11.79a21.68 21.68 0 0 0 2.489-10.105C55.647 23.791 45.857 14 33.823 14 21.791 14 12 23.79 12 35.827c0 12.037 9.79 21.829 21.823 21.829 4.54 0 8.762-1.397 12.258-3.78l13.036 11.762A5.304 5.304 0 0 0 62.677 67c1.458 0 2.91-.592 3.961-1.756a5.344 5.344 0 0 0-.392-7.522"/></g></svg>
